X:497
T:Lord MacDonald
R:Strathspey
B:The Athole Collection
M:C
L:1/8
K:D
A<G|F<A Af/g/ a>fe>d|g>fe>d B>dB>A|F<A Af/g/ a>fe>d|e/f/g f/g/a e2d:|
|:A|F<A A>B A>B A<F|G/G/G G2 G>AB>G|F<A A>B A>BA>F|G>BA>F D2D:|
|:A/G/|F<A Af/g/ a>fe>d|g>fe>d B<d B>A|F<A Af/g/ a>fe>d|e/f/g e/g/a e2d:|
|:g|f<a a>b a>ba>f|g/g/g g2 g>ab>g|f<a a>b a>ba>f|g<a f>g e2d:|

